X:2
T:Peacock's Feather Hornpipe (Infernal Triangle)
C:St. Louis River Rats
M:2/4
L:1/8
Q:1/4=120
K:D
P: Part A
B>A [| "Em"G2 F>G | E>^D E>F | G>F G>B |"D"A2 G>A | "Em"B>e e>f | e>d B>A| "G"G2 B>G | "B"F2 B>A | 
"Em"G2 F>G | E>^D E>F | G>F G>B |"D"A2 G>A | "Em"B>e e>f | e>d B>A| "B"G2 "D"F>G | "Em"E2 B>c || 
P: Part B
"D"d>c d>c | "Em"e3 f | e>d B>G | "D"A2 B>c | d>c d>c | "Em"e>d B>A | "G"G2  B>G | "B"F2 B>A | 
"Em"G2 F>G | E>^D E>F | G>F G>B | "D"A2 G>A | "Em"B>e e>f | e>d B>A| "B"G2 "D"F>G | "Em"E2|]

